X:67
%%score 1 2
%%vocalfont Baskerville10Pro 12
%%pagewidth 8.5in
T:The British Grenadiers.
M:C|
L:1/4
K:G
V:1 clef-treble
V:2 clef-bass octave=-1
V:1
D|[BG]D[DG][FA]|[GB]2[FA](B/c/)|[DGd]G[C/F/(B/]A/)(G/F/)|
w:Some talk of A-lex an-der, And* some of Her* cu*
V:2
z|G,2[B,G][DA]|[GB]2[DA]2|[B,G]zDz|
V:1
[B,G]3D|[B,G]D[B,G][EA]|[^DFB]2[EA](B/c/)|[DGBd]G[C/F/(B/]A/)(G/F/)|[B,G]3||:
w:les, Of Hec-tor and Ly-san-der, And* such great names* as* these;
V:2
GG,/G,/G,z|G,2EC|B,2CB,/A,/|D,zDz|G,G,/G,/G,||:
V:1
[Gce]|d>ed[DAc]&[FA]x3|(B>c)d[=FGd]&[DG]x3|[Ece]e[E/(d/]c/)(B/A/)|G2FD&D2-DD|
w:But~of all the world's brave he* roes There's none that can* com-*pare, With a
V:2
C|D3F|G3B|c2[CA]2|B2A[FA]&D2-DC|
V:1
[DG][CD][B,G][DA]|[D^GB]2[CA]B/c/|"^Repeat the last part in Chorus."[D=GBd]G[CE(B]/A/)(G/F/)|[B,G]3:||
w:tow row, row, row, row, row To the Bri-tish Gre-*na-*dier.
V:2
[B,G][A,F]G,=F,|E,2A,2|D,2D2|G,3:||


